static/img/kroki/b143f45260e88ef208f96702d3fbb1f1.svg

<?xml version="1.0" encoding="us-ascii" standalone="no"?><svg xmlns="http://www.w3.org/2000/svg" xmlns:xlink="http://www.w3.org/1999/xlink" contentStyleType="text/css" height="374px" preserveAspectRatio="none" style="width:398px;height:374px;" version="1.1" viewBox="0 0 398 374" width="398px" zoomAndPan="magnify"><defs/><g><!--class azure_network_local_network_gateway--><g id="elem_azure_network_local_network_gateway"><rect codeLine="23" fill="#3D176E" height="39.7891" id="azure_network_local_network_gateway" rx="2.5" ry="2.5" style="stroke:#000D19;stroke-width:0.5;" width="374" x="7" y="328.58"/><ellipse cx="22" cy="348.4745" fill="#ADD1B2" rx="11" ry="11" style="stroke:#181818;stroke-width:1.0;"/><path d="M24.9688,354.1152 Q24.3906,354.412 23.75,354.5527 Q23.1094,354.7089 22.4063,354.7089 Q19.9063,354.7089 18.5781,353.0683 Q17.2656,351.412 17.2656,348.287 Q17.2656,345.162 18.5781,343.5058 Q19.9063,341.8495 22.4063,341.8495 Q23.1094,341.8495 23.75,342.0058 Q24.4063,342.162 24.9688,342.4589 L24.9688,345.1777 Q24.3438,344.5995 23.75,344.3339 Q23.1563,344.0527 22.5313,344.0527 Q21.1875,344.0527 20.5,345.1308 Q19.8125,346.1933 19.8125,348.287 Q19.8125,350.3808 20.5,351.4589 Q21.1875,352.5214 22.5313,352.5214 Q23.1563,352.5214 23.75,352.2558 Q24.3438,351.9745 24.9688,351.3964 L24.9688,354.1152 Z " fill="#000000"/><text fill="#D9B8FF" font-family="Helvetica" font-size="17" lengthAdjust="spacing" textLength="332" x="41" y="354.3598">azure_network_local_network_gateway</text></g><!--class gateway--><g id="elem_gateway"><rect codeLine="26" fill="#3D176E" height="39.7891" id="gateway" rx="2.5" ry="2.5" style="stroke:#000D19;stroke-width:0.5;" width="114" x="42" y="167.79"/><ellipse cx="57" cy="187.6845" fill="#ADD1B2" rx="11" ry="11" style="stroke:#181818;stroke-width:1.0;"/><path d="M59.9688,193.3252 Q59.3906,193.622 58.75,193.7627 Q58.1094,193.9189 57.4063,193.9189 Q54.9063,193.9189 53.5781,192.2783 Q52.2656,190.622 52.2656,187.497 Q52.2656,184.372 53.5781,182.7158 Q54.9063,181.0595 57.4063,181.0595 Q58.1094,181.0595 58.75,181.2158 Q59.4063,181.372 59.9688,181.6689 L59.9688,184.3877 Q59.3438,183.8095 58.75,183.5439 Q58.1563,183.2627 57.5313,183.2627 Q56.1875,183.2627 55.5,184.3408 Q54.8125,185.4033 54.8125,187.497 Q54.8125,189.5908 55.5,190.6689 Q56.1875,191.7314 57.5313,191.7314 Q58.1563,191.7314 58.75,191.4658 Q59.3438,191.1845 59.9688,190.6064 L59.9688,193.3252 Z " fill="#000000"/><text fill="#D9B8FF" font-family="Helvetica" font-size="17" lengthAdjust="spacing" textLength="72" x="76" y="193.5698">gateway</text></g><!--class microsoft_resource--><g id="elem_microsoft_resource"><rect codeLine="29" fill="#3D176E" height="39.7891" id="microsoft_resource" rx="2.5" ry="2.5" style="stroke:#000D19;stroke-width:0.5;" width="200" x="191" y="167.79"/><ellipse cx="206" cy="187.6845" fill="#ADD1B2" rx="11" ry="11" style="stroke:#181818;stroke-width:1.0;"/><path d="M208.9688,193.3252 Q208.3906,193.622 207.75,193.7627 Q207.1094,193.9189 206.4063,193.9189 Q203.9063,193.9189 202.5781,192.2783 Q201.2656,190.622 201.2656,187.497 Q201.2656,184.372 202.5781,182.7158 Q203.9063,181.0595 206.4063,181.0595 Q207.1094,181.0595 207.75,181.2158 Q208.4063,181.372 208.9688,181.6689 L208.9688,184.3877 Q208.3438,183.8095 207.75,183.5439 Q207.1563,183.2627 206.5313,183.2627 Q205.1875,183.2627 204.5,184.3408 Q203.8125,185.4033 203.8125,187.497 Q203.8125,189.5908 204.5,190.6689 Q205.1875,191.7314 206.5313,191.7314 Q207.1563,191.7314 207.75,191.4658 Q208.3438,191.1845 208.9688,190.6064 L208.9688,193.3252 Z " fill="#000000"/><text fill="#D9B8FF" font-family="Helvetica" font-size="17" lengthAdjust="spacing" textLength="158" x="225" y="193.5698">microsoft_resource</text></g><!--class resource--><g id="elem_resource"><rect codeLine="32" fill="#3D176E" height="39.7891" id="resource" rx="2.5" ry="2.5" style="stroke:#000D19;stroke-width:0.5;" width="113" x="137.5" y="7"/><ellipse cx="152.5" cy="26.8945" fill="#ADD1B2" rx="11" ry="11" style="stroke:#181818;stroke-width:1.0;"/><path d="M155.4688,32.5352 Q154.8906,32.832 154.25,32.9727 Q153.6094,33.1289 152.9063,33.1289 Q150.4063,33.1289 149.0781,31.4883 Q147.7656,29.832 147.7656,26.707 Q147.7656,23.582 149.0781,21.9258 Q150.4063,20.2695 152.9063,20.2695 Q153.6094,20.2695 154.25,20.4258 Q154.9063,20.582 155.4688,20.8789 L155.4688,23.5977 Q154.8438,23.0195 154.25,22.7539 Q153.6563,22.4727 153.0313,22.4727 Q151.6875,22.4727 151,23.5508 Q150.3125,24.6133 150.3125,26.707 Q150.3125,28.8008 151,29.8789 Q151.6875,30.9414 153.0313,30.9414 Q153.6563,30.9414 154.25,30.6758 Q154.8438,30.3945 155.4688,29.8164 L155.4688,32.5352 Z " fill="#000000"/><text fill="#D9B8FF" font-family="Helvetica" font-size="17" lengthAdjust="spacing" textLength="71" x="171.5" y="32.7798">resource</text></g><!--reverse link gateway to azure_network_local_network_gateway--><g id="link_gateway_azure_network_local_network_gateway"><path codeLine="35" d="M119.7016,223.2865 C137.9616,253.8065 164.22,297.69 182.5,328.25 " fill="none" id="gateway-backto-azure_network_local_network_gateway" style="stroke:#FFAF37;stroke-width:2.0;"/><polygon fill="none" points="110.46,207.84,114.5527,226.367,124.8504,220.2059,110.46,207.84" style="stroke:#FFAF37;stroke-width:2.0;"/></g><!--reverse link microsoft_resource to azure_network_local_network_gateway--><g id="link_microsoft_resource_azure_network_local_network_gateway"><path codeLine="36" d="M269.918,223.2016 C251.278,253.7216 224.41,297.69 205.74,328.25 " fill="none" id="microsoft_resource-backto-azure_network_local_network_gateway" style="stroke:#FFAF37;stroke-width:2.0;"/><polygon fill="none" points="279.3,207.84,264.7975,220.0742,275.0385,226.3289,279.3,207.84" style="stroke:#FFAF37;stroke-width:2.0;"/></g><!--reverse link resource to gateway--><g id="link_resource_gateway"><path codeLine="37" d="M173.2984,62.4965 C155.0384,93.0165 128.78,136.9 110.5,167.46 " fill="none" id="resource-backto-gateway" style="stroke:#FFAF37;stroke-width:2.0;"/><polygon fill="none" points="182.54,47.05,168.1496,59.4159,178.4473,65.577,182.54,47.05" style="stroke:#FFAF37;stroke-width:2.0;"/></g><!--reverse link resource to microsoft_resource--><g id="link_resource_microsoft_resource"><path codeLine="38" d="M215.082,62.4116 C233.722,92.9316 260.59,136.9 279.26,167.46 " fill="none" id="resource-backto-microsoft_resource" style="stroke:#FFAF37;stroke-width:2.0;"/><polygon fill="none" points="205.7,47.05,209.9615,65.5389,220.2025,59.2842,205.7,47.05" style="stroke:#FFAF37;stroke-width:2.0;"/></g><!--SRC=[ZP1BRy8m48Jl-HMME2D1KGj8lL2aghsWglIE5diDLX8lMcyQGTl_tb8UCabu73tpxSwibywWmdmbQvLZFaSEIKYTNm53haRCL8uf8rOjQy7s-bNpcRnS1IQGeth1x1F5QQWI7qkdKuyXgBl8UWATBfWARtRhXS67FmkzHDGuWn168kpcXM1KnWpd0skhP7LfgsUw_GUiOSG6UOzqEXtJ7LQHgr4NxpuIKxT1rOq_RKA2jPgrY7_gOiij4PMi7NhmptPy0sESNwZxI7lVTMAFVA9Fbs2etD8MiX371456alKAnxMhS3Wmjjy8lvw34xtzEWMRWd7cKKhYT9QHXkpuMe1W2MlrbIG_Uxn1ofrc2cHbnXYeO8snUweTnX-_s-tsBTb9m_RRXoiZP-HwHF8B]--></g></svg>

<svg xmlns="http://www.w3.org/2000/svg" width="398" height="374" viewBox="0 0 398 374"><rect width="374" height="39.789" x="7" y="328.58" fill="#3D176E" rx="2.5" ry="2.5" style="stroke:#000d19;stroke-width:.5"/><circle cx="22" cy="348.474" r="11" fill="#ADD1B2" style="stroke:#181818;stroke-width:1"/><path d="M24.969 354.115q-.578.297-1.219.438-.64.156-1.344.156-2.5 0-3.828-1.64-1.312-1.657-1.312-4.782t1.312-4.781q1.328-1.656 3.828-1.656.703 0 1.344.156.656.156 1.219.453v2.719q-.625-.579-1.219-.844-.594-.281-1.219-.281-1.343 0-2.031 1.078-.687 1.062-.687 3.156t.687 3.172q.688 1.062 2.031 1.062.625 0 1.219-.265.594-.281 1.219-.86z"/><text x="41" y="354.36" fill="#D9B8FF" font-family="Helvetica" font-size="17" textLength="332">azure_network_local_network_gateway</text><rect width="114" height="39.789" x="42" y="167.79" fill="#3D176E" rx="2.5" ry="2.5" style="stroke:#000d19;stroke-width:.5"/><circle cx="57" cy="187.685" r="11" fill="#ADD1B2" style="stroke:#181818;stroke-width:1"/><path d="M59.969 193.325q-.578.297-1.219.438-.64.156-1.344.156-2.5 0-3.828-1.64-1.312-1.657-1.312-4.782t1.312-4.781q1.328-1.656 3.828-1.656.703 0 1.344.156.656.156 1.219.453v2.719q-.625-.578-1.219-.844-.594-.281-1.219-.281-1.343 0-2.031 1.078-.687 1.062-.687 3.156t.687 3.172q.688 1.062 2.031 1.062.625 0 1.219-.265.594-.281 1.219-.86z"/><text x="76" y="193.57" fill="#D9B8FF" font-family="Helvetica" font-size="17" textLength="72">gateway</text><rect width="200" height="39.789" x="191" y="167.79" fill="#3D176E" rx="2.5" ry="2.5" style="stroke:#000d19;stroke-width:.5"/><circle cx="206" cy="187.685" r="11" fill="#ADD1B2" style="stroke:#181818;stroke-width:1"/><path d="M208.969 193.325q-.578.297-1.219.438-.64.156-1.344.156-2.5 0-3.828-1.64-1.312-1.657-1.312-4.782t1.312-4.781q1.328-1.656 3.828-1.656.703 0 1.344.156.656.156 1.219.453v2.719q-.625-.578-1.219-.844-.594-.281-1.219-.281-1.344 0-2.031 1.078-.687 1.062-.687 3.156t.687 3.172q.688 1.062 2.031 1.062.625 0 1.219-.265.594-.281 1.219-.86z"/><text x="225" y="193.57" fill="#D9B8FF" font-family="Helvetica" font-size="17" textLength="158">microsoft_resource</text><rect width="113" height="39.789" x="137.5" y="7" fill="#3D176E" rx="2.5" ry="2.5" style="stroke:#000d19;stroke-width:.5"/><circle cx="152.5" cy="26.895" r="11" fill="#ADD1B2" style="stroke:#181818;stroke-width:1"/><path d="M155.469 32.535q-.578.297-1.219.438-.64.156-1.344.156-2.5 0-3.828-1.64-1.312-1.657-1.312-4.782t1.312-4.781q1.328-1.656 3.828-1.656.703 0 1.344.156.656.156 1.219.453v2.719q-.625-.578-1.219-.844-.594-.281-1.219-.281-1.344 0-2.031 1.078-.687 1.062-.687 3.156t.687 3.172q.688 1.062 2.031 1.062.625 0 1.219-.265.594-.281 1.219-.86z"/><text x="171.5" y="32.78" fill="#D9B8FF" font-family="Helvetica" font-size="17" textLength="71">resource</text><path fill="none" d="M119.702 223.287c18.26 30.52 44.518 74.403 62.798 104.963m-72.04-120.41 4.093 18.527 10.297-6.161zm159.458 15.362c-18.64 30.52-45.508 74.488-64.178 105.048m73.56-120.41-14.502 12.234 10.24 6.255zM173.298 62.497C155.038 93.017 128.78 136.9 110.5 167.46m72.04-120.41-14.39 12.366 10.297 6.161zm32.542 15.362c18.64 30.52 45.508 74.488 64.178 105.048M205.7 47.05l4.262 18.489 10.24-6.255z" style="stroke:#ffaf37;stroke-width:2"/></svg>
